X:133
T:Mullingar Races, The
R:reel
H:Also played in C
D:Matt Molloy: Stony Steps
Z:id:hn-reel-133
M:C|
K:D
DEFD EA,~A,2|DEFA Bcde|faec d2cA|BdAF EGFE|
DEFD EA,~A,2|DEFA Bcde|faec dBAG|1 FGEF D2FE:|2 FGEF D2 (3ABc||
|:d2fd Adfa|afdf edBA|d2fd Adfd|Beef edBA|
d2fd Adfa|afdf edBc|dfec dBAG|1 FGEF D2 (3ABc:|2 FGEF D2FE||

